src/svgs/white-house-2.svg

<svg xmlns="http://www.w3.org/2000/svg" viewBox="0 0 24 24" width="512" height="512" aria-labelledby="lkwhite-house-2-desc lkwhite-house-2-title"><title id="lkwhite-house-2-title">White House Icon</title><desc id="lkwhite-house-2-desc">A picture depicting the famous White House presidential building.</desc><path d="M22 5H2l10.036-4zm-1.029 16H3.029v2h17.942zm0-15H3.029v2h17.942zM7 18v-7a1 1 0 011-1V9H4v1a1 1 0 011 1v7a1 1 0 01-1 1v1h4v-1a1 1 0 01-1-1zm6 0v-7a1 1 0 011-1V9h-4v1a1 1 0 011 1v7a1 1 0 01-1 1v1h4v-1a1 1 0 01-1-1zm6 0v-7a1 1 0 011-1V9h-4v1a1 1 0 011 1v7a1 1 0 01-1 1v1h4v-1a1 1 0 01-1-1z"/></svg>

<svg xmlns="http://www.w3.org/2000/svg" viewBox="0 0 24 24"><path d="M22,5H2L12.036,1ZM20.971,21H3.029v2H20.971Zm0-15H3.029V8H20.971ZM7,18V11a1,1,0,0,1,1-1V9H4v1a1,1,0,0,1,1,1v7a1,1,0,0,1-1,1v1H8V19A1,1,0,0,1,7,18Zm6,0V11a1,1,0,0,1,1-1V9H10v1a1,1,0,0,1,1,1v7a1,1,0,0,1-1,1v1h4V19A1,1,0,0,1,13,18Zm6,0V11a1,1,0,0,1,1-1V9H16v1a1,1,0,0,1,1,1v7a1,1,0,0,1-1,1v1h4V19A1,1,0,0,1,19,18Z"/></svg>
